X:1
T:Sweeter Than All Is Jesus
T:Sweeter Than All Is Jesus
T:Max Hutchison Rapp
T:Max Hutchison Rapp, 1918
T:Public Domain Courtesy of the Cyber Hymnal™
C:Max Hutchison Rapp
Z:Public Domain
Z:Courtesy of the Cyber Hymnal™
%%score ( 1 2 ) ( 3 4 )
L:1/8
Q:1/4=103
M:6/8
K:Ab
V:1 treble 
V:2 treble 
V:3 bass 
V:4 bass 
V:1
 [Ec]2 [Ec] [Fd]2 [Ec] | [=Dc]2 [DB] [DF]3 | [DB]2 [DB] [Ec]2 [DB] | [DB]2 [CA] [CE]3 | %4
w: 1.~Sweet- er than the|songs we sing,|Bet- ter than all|earth- ly things,|
w: 2.~Love like His will|ne’er grow old,|Keeps me safe with-|in the fold;|
w: 3.~Je- sus makes me|pure and strong,|Tells me which is|right from wrong,|
 [Ec]2 [Ec] [Fd]2 [Ec] | [Fe]2 [Fd] [DF]3 | [CE][CA][DB] [Ec]2 [CA] | [DB]3 [CA]2 z || %8
w: Sweet- er than the|joy they bring,|Sweet- er than all is|Je- sus.|
w: Sweet- er than a|world of gold,|Sweet- er than all is|Je- sus.|
w: And I praise Him|all day long—|Sweet- er than all is|Je- sus.|
"^Refrain" [Ae]3 [Ac]3 | [FB]2 [FA] [DF]3 | [CE]2 [CA] (cB)[CA] | [=DB]2 [DB] [EB]3 | [Ae]3 [Ac]3 | %13
w: |||||
w: Je- sus,|bless- èd name,|Sweet- er than * all|earth- ly fame;|Je- sus,|
w: |||||
 [Ac]2 (c/e/) !fermata![Fd]3 | [DF][DA][Fd] [Ec]2 [CA] | [DB]3 [CA]2 z |] %16
w: |||
w: bless- èd * name,|Sweet- er than all is|Je- sus.|
w: |||
V:2
 x6 | x6 | x6 | x6 | x6 | x6 | x6 | x6 || x6 | x6 | x3 C2 x | x6 | x6 | x2 A x3 | x6 | x6 |] %16
V:3
 [A,,A,]2 [A,,A,] [A,,A,]2 [A,,A,] | [B,,F,]2 [B,,F,] (B,2 A,) | [E,G,]2 [E,G,] [E,A,]2 [E,G,] | %3
w: ~ ~ ~ ~|~ ~ ~ *|~ ~ ~ ~|
 [A,,A,]2 [A,,A,] [A,,A,]3 | A,2 A, A,2 A, | [D,A,]2 [D,A,] [D,A,]3 | %6
w: ~ ~ ~|~ ~ ~ ~|~ ~ ~|
 [E,A,][E,A,][E,A,] [E,A,]2 [E,A,] | [E,G,]3 [A,,A,]2 z || [A,C]2 [A,C] [A,E]2 [A,E] | %9
w: ~ ~ ~ ~ ~|~ ~|Je- sus, Je- sus,|
 [D,D]2 [D,D] [D,A,]3 | [A,,A,]2 [A,,A,] [F,A,]2 [F,A,] | [B,,A,]2 [B,,A,] [E,G,]2 [G,B,] | %12
w: ~ ~ ~|~ ~ ~ ~|~ ~ ~ ~|
 [A,C]2 [A,C] [A,E]2 [A,E] | [A,E]2 [C,A,] !fermata![D,A,]3 | [D,A,][D,A,][D,A,] [E,A,]2 [E,A,] | %15
w: Je- sus, Je- sus,|||
 [E,G,]3 [A,,A,]2 z |] %16
w: |
V:4
 x6 | x3 B,,3 | x6 | x6 | A,2 A, A,2 A, | x6 | x6 | x6 || x6 | x6 | x6 | x6 | x6 | x6 | x6 | x6 |] %16

